!!!ONB: MCCC : IJH0431_03 : Extracted Monophonic Melody
!!!COM: Haydn, Joseph
!!!OPR: String Quartet in D major 'The Lark'
!!!OMV: 3
!!!SCT: Hob.III:63 ; Op.64 No.5
!!!ODT: 1790///
**kern
*thru
*k[f#c#]
*D:
*clefF
*M3/4
4d
=1
4f#
4a
4B
=2
4e
4g
8c#
8d
=3
8e
8f#
8g
8a
8b
8cc#
=4
4dd
4dd
8cc#
8dd
=5
8ee
8ff#
8gg
8aa
8bb
8ccc#
=6
4ddd
4ddd
4ddd#
=7
4eee
4eee
4gg#
=8
4aa
2r
=9
4aa
4aa
4r
=10
4gg#
4gg#
4r
=11
4gg
4gg
4r
=12
2.ff
=13
2ee
4ff
=14
2ee
4ff
=15
4ee
4ee
4ff
=16
4ee
4r
4d
=17
4f#
4a
4B
=18
4e
4g
8c#
8d
=19
8e
8f#
8g
8a
8b
8cc#
=20
4dd
4dd
4aa
=21
4gg
4gg
4gg
=22
4ff#
4ff#
8ddd
8ccc#
=23
8bb
8aa
8gg
8ff#
8ee
8dd#
=24
8ee
8dd#
8ee
8ff#
4gg
=25
4ff#
4dd
4cc#
=26
4dd
4r
4dd
=27
4ff#
4aa
4b
=28
4gg
4a
4ff#
=29
4g
4ee
4f#
=30
8e
8f#
8g
8a
8b
8cc#
=31
4dd
4r
4ee
=32
4ff
4r
4ff
=33
4ff#
4r
4ff#
=34
4gg
4r
4ff#
=35
4ee
4r
4ff#
=36
4gg
4r
4ff#
=37
4ee
4gg
4bb
=38
2dd
8cc#
8dd
=39
8ee
8ff#
8gg
8aa
8bb
8ccc#
=40
4ddd
2r
=41
2r
4aa
=42
4ff#
2r
*d:
=43
2.r
=44
2.r
=45
2.r
=46
2r
8d
8e
=47
8f
8a
8b-
8cc
8dd
8b
=48
8cc
8b
8cc
8g
8ee
8cc
=49
8ff
8ee
8ff
8cc
8bb-
8gg
=50
8aa
8gg#
8aa
8ff
8bb-
8gg
=51
8aa
8gg#
8aa
8ff
8bb-
8gg
=52
8aa
8ff
8gg
8ee
8ff
8dd
=53
8ee-
8cc
8dd
8b-
8cc
8a
=54
8b-
8a
8b-
8dd
8cc
8b-
=55
8a
8b-
8cc
8a
8b-
8g
=56
4f
4r
8bb-
8aa
=57
8gg
8ff
8ee
8ff
8gg
8ff
=58
4ee
4r
8bb-
8aa
=59
8gg
8ff
8ee
8ff
8gg
8ff
=60
4ee
2aa
=61
8gg
8ff
8ee
8dd
4dd[
=62
4dd]
4cc#
4cc[
=63
4cc]
4b
4b-
=64
4a
4g
4f
=65
8e
8d
8e
8g
8f
8e
=66
4d
2r
==
*-
